X:1
T:German Dance No 2
T:German Dance No 2
T:D. 420.2
T:Franz Schubert
T:Public Domain (PianoXML typeset) | 12 German Dances D.420 (1817)
C:Franz Schubert
Z:Public Domain (PianoXML typeset) | 12 German Dances D.420 (1817)
%%score { 1 | ( 2 3 ) }
L:1/8
Q:1/4=120
M:3/4
K:A
V:1 treble nm="Piano" snm="Pno."
V:2 bass 
V:3 bass 
V:1
!p!"^Allegro grazioso" .c2 | .d2 .f2 !>!B2- | B2!<(! (^ABcd)!<)! | (e2 .a2)!mf! !>!c2- | %4
 (c!<(!AGABc!<)! | (d2) .f2) B2- | B2!>(! (^ABcd!>)! |!p! ce=AcBG | A4) ::{/f} (e^d) | %10
 (e2 f2) .c2 | (e2 =d2){/e} (dc) | (d2 e2) .B2 | (d2 c2){/f} (e^d) | (e2 a2) .g2 | (^efgf =ed | %16
 cBed cB | A4) :| %18
V:2
 z2 |!ped! E,2 [G,DE]2!ped-up! [G,DE]2 |!ped! E,2 [G,DE]2!ped-up! [G,DE]2 | %3
!ped! E,2 [A,CE]2!ped-up! [A,CE]2 |!ped! E,2 [A,CE]2!ped-up! [A,CE]2 | %5
!ped! E,2 [G,DE]2!ped-up! [G,DE]2 |!ped! E,2 [G,DE]2!ped-up! [G,DE]2 | %7
!ped! [A,C]4!ped! [E,D]2!ped-up! | [A,C]4 :: z2 |!ped! x2 [^A,CE]2!ped-up! [A,CE]2 | %11
!ped! x2 [B,DE]2!ped-up! [B,DE]2 |!ped! x2 [G,DE]2!ped-up! [G,DE]2 |!ped! x2 [CE]2!ped-up! [CE]2 | %14
 [C,A,]2 [C,A,]2 [C,A,]2 |!ped! [D,A,]4!ped-up! [D,B,]2 |!ped! [E,G,D]2 [E,G,D]2!ped-up! [E,G,D]2 | %17
!ped! [A,C]4!ped-up! :| %18
V:3
 x2 | x6 | x6 | x6 | x6 | x6 | x6 | x6 | x4 :: x2 | E,6 | E,6 | E,6 | =A,6 | x6 | x6 | x6 | x4 :| %18

